symbols-de/shields/motorway_8x3_z16.svg

<?xml version="1.0" encoding="UTF-8" standalone="no"?>
<svg
   xmlns:dc="http://purl.org/dc/elements/1.1/"
   xmlns:cc="http://creativecommons.org/ns#"
   xmlns:rdf="http://www.w3.org/1999/02/22-rdf-syntax-ns#"
   xmlns:svg="http://www.w3.org/2000/svg"
   xmlns="http://www.w3.org/2000/svg"
   xmlns:sodipodi="http://sodipodi.sourceforge.net/DTD/sodipodi-0.dtd"
   xmlns:inkscape="http://www.inkscape.org/namespaces/inkscape"
   width="100%"
   height="100%"
   viewBox="0 0 61.0 36.0"
   id="svg2"
   version="1.1"
   inkscape:version="0.91 r13725"
   sodipodi:docname="autobahn_8x3_z16.svg">
  <metadata
     id="metadata9">
    <rdf:RDF>
      <cc:Work
         rdf:about="">
        <dc:format>image/svg+xml</dc:format>
        <dc:type
           rdf:resource="http://purl.org/dc/dcmitype/StillImage" />
        <dc:title></dc:title>
      </cc:Work>
    </rdf:RDF>
  </metadata>
  <defs
     id="defs7" />
  <sodipodi:namedview
     pagecolor="#ffffff"
     bordercolor="#666666"
     borderopacity="1"
     objecttolerance="10"
     gridtolerance="10"
     guidetolerance="10"
     inkscape:pageopacity="0"
     inkscape:pageshadow="2"
     inkscape:window-width="968"
     inkscape:window-height="776"
     id="namedview5"
     showgrid="false"
     inkscape:zoom="5.7868852"
     inkscape:cx="30.5"
     inkscape:cy="18"
     inkscape:window-x="284"
     inkscape:window-y="109"
     inkscape:window-maximized="0"
     inkscape:current-layer="svg2" />
  <path
     style="fill:#365eaf;fill-opacity:1;stroke:#0528a2;stroke-width:1;stroke-miterlimit:4;stroke-dasharray:none;stroke-opacity:1"
     d="m 30.5,0.4999997 c -0.430105,0 -0.644531,0.0036 -0.644531,0.01282 L 1.469051,2.4482437 C 0.823889,2.5410437 0.5,2.6813357 0.5,2.8669457 l 0,30.2661103 c 0,0.185609 0.323889,0.325896 0.969051,0.418701 l 28.386418,1.935424 c 0,0.0093 0.214431,0.01282 0.644531,0.01282 0.430108,0 0.644532,-0.0035 0.644532,-0.01282 L 59.53095,33.551756 c 0.645164,-0.0928 0.827613,-0.245621 0.969051,-0.418701 0,-16.253565 0,-15.906182 0,-30.2661103 0,-0.18561 -0.323887,-0.325899 -0.969051,-0.418702 L 31.144532,0.5128177 c 0,-0.0093 -0.214431,-0.01282 -0.644532,-0.01282 z"
     id="path6"
     inkscape:connector-curvature="0"
     sodipodi:nodetypes="sccccccsccccccs" />
</svg>

<?xml version="1.0" encoding="UTF-8"?>
<svg xmlns="http://www.w3.org/2000/svg" xmlns:xlink="http://www.w3.org/1999/xlink" width="58pt" height="48pt" viewBox="0 0 58 48" version="1.1">
<g id="surface1">
<path style="fill-rule:nonzero;fill:rgb(21.176471%,36.862745%,68.627451%);fill-opacity:1;stroke-width:1;stroke-linecap:butt;stroke-linejoin:miter;stroke:rgb(1.960784%,15.686275%,63.529412%);stroke-opacity:1;stroke-miterlimit:4;" d="M 30.5 0.500977 C 30.068629 0.500977 29.854997 0.503906 29.854997 0.512695 L 1.47077 2.449219 C 0.825768 2.540039 0.501212 2.680664 0.501212 2.868164 L 0.501212 33.131836 C 0.501212 33.319336 0.825768 33.459961 1.47077 33.550781 L 29.854997 35.487305 C 29.854997 35.496094 30.068629 35.499023 30.5 35.499023 C 30.931371 35.499023 31.145003 35.496094 31.145003 35.487305 L 59.52923 33.550781 C 60.174232 33.459961 60.359106 33.304688 60.498788 33.131836 C 60.498788 16.880859 60.498788 17.226562 60.498788 2.868164 C 60.498788 2.680664 60.174232 2.540039 59.52923 2.449219 L 31.145003 0.512695 C 31.145003 0.503906 30.931371 0.500977 30.5 0.500977 Z M 30.5 0.500977 " transform="matrix(0.95082,0,0,1.333333,0,0)"/>
</g>
</svg>
